dist/img/icons/telegram.svg

<svg width="28" height="28" viewBox="0 0 28 28" fill="none" xmlns="http://www.w3.org/2000/svg">
<path d="M14 0.666748C6.63999 0.666748 0.666656 6.64008 0.666656 14.0001C0.666656 21.3601 6.63999 27.3334 14 27.3334C21.36 27.3334 27.3333 21.3601 27.3333 14.0001C27.3333 6.64008 21.36 0.666748 14 0.666748ZM20.1867 9.73342C19.9867 11.8401 19.12 16.9601 18.68 19.3201C18.4933 20.3201 18.12 20.6534 17.7733 20.6934C17 20.7601 16.4133 20.1868 15.6667 19.6934C14.4933 18.9201 13.8267 18.4401 12.6933 17.6934C11.3733 16.8268 12.2267 16.3468 12.9867 15.5734C13.1867 15.3734 16.6 12.2668 16.6667 11.9867C16.6759 11.9443 16.6747 11.9003 16.6631 11.8585C16.6515 11.8167 16.6298 11.7783 16.6 11.7468C16.52 11.6801 16.4133 11.7067 16.32 11.7201C16.2 11.7467 14.3333 12.9868 10.6933 15.4401C10.16 15.8001 9.67999 15.9868 9.25332 15.9734C8.77332 15.9601 7.86666 15.7068 7.18666 15.4801C6.34666 15.2134 5.69332 15.0668 5.74666 14.6001C5.77332 14.3601 6.10666 14.1201 6.73332 13.8668C10.6267 12.1734 13.2133 11.0534 14.5067 10.5201C18.2133 8.97342 18.9733 8.70675 19.48 8.70675C19.5867 8.70675 19.84 8.73342 20 8.86675C20.1333 8.97342 20.1733 9.12008 20.1867 9.22675C20.1733 9.30675 20.2 9.54675 20.1867 9.73342Z" fill="white"/>
</svg>

<svg width="28" height="28" fill="none" xmlns="http://www.w3.org/2000/svg"><path d="M14 .667C6.64.667.667 6.64.667 14S6.64 27.333 14 27.333 27.333 21.36 27.333 14 21.36.667 14 .667zm6.187 9.066c-.2 2.107-1.067 7.227-1.507 9.587-.187 1-.56 1.333-.907 1.373-.773.067-1.36-.506-2.106-1-1.174-.773-1.84-1.253-2.974-2-1.32-.866-.466-1.346.294-2.12.2-.2 3.613-3.306 3.68-3.586a.267.267 0 00-.067-.24c-.08-.067-.187-.04-.28-.027-.12.027-1.987 1.267-5.627 3.72-.533.36-1.013.547-1.44.533-.48-.013-1.386-.266-2.066-.493-.84-.267-1.494-.413-1.44-.88.026-.24.36-.48.986-.733 3.894-1.694 6.48-2.814 7.774-3.347 3.706-1.547 4.466-1.813 4.973-1.813.107 0 .36.026.52.16a.53.53 0 01.187.36c-.014.08.013.32 0 .506z" fill="#fff"/></svg>
